docs/img/flag-ru.svg

<svg width="76" height="54" viewBox="0 0 76 54" fill="none" xmlns="http://www.w3.org/2000/svg">
<path d="M0 18.6923H76V35.3077H0V18.6923Z" fill="#1B75BB"/>
<path d="M64.125 0H11.875C4.00544 0 0 6.13731 0 13.7077V18.6923H76V13.7077C76 6.13731 71.9946 0 64.125 0Z" fill="#E6E7E8"/>
<path d="M0 40.2923C0 47.8627 4.00544 54 11.875 54H64.125C71.9946 54 76 47.8627 76 40.2923V35.3077H0V40.2923Z" fill="#EC1C24"/>
</svg>

<svg width="76" height="54" viewBox="0 0 76 54" fill="none" xmlns="http://www.w3.org/2000/svg"><path d="M0 18.692h76v16.616H0V18.692z" fill="#1B75BB"/><path d="M64.125 0h-52.25C4.005 0 0 6.137 0 13.708v4.984h76v-4.984C76 6.138 71.995 0 64.125 0z" fill="#E6E7E8"/><path d="M0 40.292C0 47.862 4.005 54 11.875 54h52.25C71.995 54 76 47.863 76 40.292v-4.984H0v4.984z" fill="#EC1C24"/></svg>
